X:1     %Music
T:Babes in the Wood
B:Randolph, V, 1982. Ozark Folksongs, Illinois Press, Urbana
S:Marie Wilbur, Pineville, Mo., June 30, 1929
Z:Randolph, V
F:http://www.folkinfo.org/songs
M:6/8     %Meter
L:1/8     %
K:Bb
F |FGF DEF |BDG F2
w:Oh, don't you re-mem-ber, a long time a-go, 
 E |EFE C2 E | GFE D2
w:When two lit-tle babes, their names I don't know,
 F |FGF D2 F |BDG F2
w:Were sto-len a-way, one bright sum-mer day,
 B |ccc A2 G | FGA B2  |]
w: And lost in the woods, I've heard peo-ple say.